X:1
T: The Scottish Horse
C:
R:Jig
Q:180
K:A
M:6/8
L:1/16
AB|:c6 e3cA2|d3fg2 a2g2f2|e3dc2 c2A2e2|B6 B2A2B2|
c6 e3cA2|d3fg2 a2g2f2|e3cA2 B4e2|1A6A6:|2A6A4e2|
|:a4e2 c4e2|d4f2 a2g2f2|e3dc2 c2A2e2|
|1B6 B4AB|c6 e3cA2|d3ef2 a4f2|e3cA2 B4e2|A6 A4e2:|
|2B6 B4ed|c2a2A2 c2a2A2|f2a2A2 d2f2A2|c2e2A2 B4e2|A6A4||
